icons/svg/power/transformer2.svg

<?xml version="1.0" encoding="UTF-8" standalone="no"?>
<!-- Created with Inkscape (http://www.inkscape.org/) -->

<svg
   xmlns:dc="http://purl.org/dc/elements/1.1/"
   xmlns:cc="http://creativecommons.org/ns#"
   xmlns:rdf="http://www.w3.org/1999/02/22-rdf-syntax-ns#"
   xmlns:svg="http://www.w3.org/2000/svg"
   xmlns="http://www.w3.org/2000/svg"
   xmlns:sodipodi="http://sodipodi.sourceforge.net/DTD/sodipodi-0.dtd"
   xmlns:inkscape="http://www.inkscape.org/namespaces/inkscape"
   version="1.0"
   width="580"
   height="580"
   id="svg2"
   sodipodi:version="0.32"
   inkscape:version="0.48.4 r9939"
   sodipodi:docname="transformer2.svg"
   inkscape:output_extension="org.inkscape.output.svg.inkscape">
  <metadata
     id="metadata10">
    <rdf:RDF>
      <cc:Work
         rdf:about="">
        <dc:format>image/svg+xml</dc:format>
        <dc:type
           rdf:resource="http://purl.org/dc/dcmitype/StillImage" />
        <cc:license
           rdf:resource="http://web.resource.org/cc/PublicDomain" />
        <dc:language>en</dc:language>
        <dc:title />
      </cc:Work>
    </rdf:RDF>
  </metadata>
  <sodipodi:namedview
     inkscape:window-height="995"
     inkscape:window-width="1280"
     inkscape:pageshadow="2"
     inkscape:pageopacity="0.0"
     guidetolerance="10.0"
     gridtolerance="10.0"
     objecttolerance="10.0"
     borderopacity="1.0"
     bordercolor="#666666"
     pagecolor="#ffffff"
     id="base"
     showgrid="false"
     inkscape:zoom="0.70710678"
     inkscape:cx="208.27716"
     inkscape:cy="325.47974"
     inkscape:window-x="0"
     inkscape:window-y="0"
     inkscape:current-layer="svg2"
     inkscape:window-maximized="1"
     showguides="true"
     inkscape:guide-bbox="true" />
  <defs
     id="defs4">
    <inkscape:perspective
       sodipodi:type="inkscape:persp3d"
       inkscape:vp_x="0 : 290 : 1"
       inkscape:vp_y="0 : 1000 : 0"
       inkscape:vp_z="580 : 290 : 1"
       inkscape:persp3d-origin="290 : 193.33333 : 1"
       id="perspective12" />
    <style
       type="text/css"
       id="style6">
   
    .fil0 {fill:#EF7900}
   
  </style>
    <inkscape:perspective
       id="perspective6807"
       inkscape:persp3d-origin="29.116032 : 19.410688 : 1"
       inkscape:vp_z="58.232063 : 29.116032 : 1"
       inkscape:vp_y="0 : 1000 : 0"
       inkscape:vp_x="0 : 29.116032 : 1"
       sodipodi:type="inkscape:persp3d" />
    <inkscape:perspective
       id="perspective6954"
       inkscape:persp3d-origin="290 : 193.33333 : 1"
       inkscape:vp_z="580 : 290 : 1"
       inkscape:vp_y="0 : 1000 : 0"
       inkscape:vp_x="0 : 290 : 1"
       sodipodi:type="inkscape:persp3d" />
    <inkscape:perspective
       id="perspective2541"
       inkscape:persp3d-origin="240 : 160 : 1"
       inkscape:vp_z="480 : 240 : 1"
       inkscape:vp_y="0 : 1000 : 0"
       inkscape:vp_x="0 : 240 : 1"
       sodipodi:type="inkscape:persp3d" />
    <inkscape:perspective
       id="perspective2750"
       inkscape:persp3d-origin="215 : 143.33333 : 1"
       inkscape:vp_z="430 : 215 : 1"
       inkscape:vp_y="0 : 1000 : 0"
       inkscape:vp_x="0 : 215 : 1"
       sodipodi:type="inkscape:persp3d" />
    <inkscape:perspective
       id="perspective3730"
       inkscape:persp3d-origin="88.929146 : 101.19778 : 1"
       inkscape:vp_z="177.85829 : 151.79668 : 1"
       inkscape:vp_y="0 : 1000 : 0"
       inkscape:vp_x="0 : 151.79668 : 1"
       sodipodi:type="inkscape:persp3d" />
  </defs>
  <g
     id="g1327">
    <path
       d="M 66.275,1.768 C 24.94,1.768 1.704,23.139 1.704,66.804 L 1.704,516.927 C 1.704,557.771 22.598,579.156 63.896,579.156 L 515.92,579.156 C 557.227,579.156 578.149,558.84 578.149,516.927 L 578.149,66.804 C 578.149,24.203 557.227,1.768 514.627,1.768 C 514.624,1.768 66.133,1.625 66.275,1.768 z"
       style="fill:#111111;stroke:#eeeeee;stroke-width:3.40799999"
       id="path1329" />
  </g>
  <g
     id="g4601">
    <path
       sodipodi:nodetypes="cccssccccsscccccccssc"
       inkscape:connector-curvature="0"
       id="path4749"
       style="fill:none;stroke:#ffffff;stroke-width:32.75113678;stroke-linecap:round;stroke-miterlimit:4;stroke-opacity:1;stroke-dasharray:none;stroke-dashoffset:0"
       d="m 77.604783,462.15313 c 0.404526,0.008 65.874017,0.0131 66.280537,0.0131 l 0,0 c 32.02063,0 57.97848,-25.95785 57.97848,-57.97847 0,-32.02063 -25.95785,-57.97848 -57.97848,-57.97848 -0.40652,0 -0.81208,0.005 -1.21661,0.0131 m 0,-0.94219 c 0.40453,0.008 0.81009,0.0131 1.21661,0.0131 l 0,0 c 32.02063,0 57.97848,-25.95786 57.97848,-57.97848 0,-32.02063 -25.95785,-57.97847 -57.97848,-57.97847 -0.40652,0 -0.81208,0.005 -1.21661,0.0131 m 0,-2.14708 c 0.40453,0.008 0.81009,0.0131 1.21661,0.0131 l 0,0 m 0.0469,-3.80854 c 0.40453,0.008 0.81009,0.0131 1.21661,0.0131 l 0,0 c 32.02063,0 57.97848,-25.95785 57.97848,-57.97847 0,-32.02061 -25.95785,-57.97847 -57.97848,-57.97847 -0.40652,0 -65.876014,0.005 -66.280541,0.0131" />
    <path
       sodipodi:nodetypes="cc"
       style="fill:none;stroke:#ffffff;stroke-width:47.24296188;stroke-linecap:round;stroke-linejoin:miter;stroke-miterlimit:5;stroke-opacity:1;stroke-dasharray:none"
       d="m 287.68735,112.54777 0,348.39846"
       id="path4759"
       inkscape:connector-curvature="0" />
    <path
       sodipodi:nodetypes="cccssccccsscccccccssc"
       inkscape:connector-curvature="0"
       id="path4749-8"
       style="fill:none;stroke:#ffffff;stroke-width:32.75113678;stroke-linecap:round;stroke-miterlimit:4;stroke-opacity:1;stroke-dasharray:none;stroke-dashoffset:0"
       d="m 500.74655,107.47647 c -0.40453,-0.008 -65.87402,-0.0131 -66.28054,-0.0131 l 0,0 c -32.02063,0 -57.97848,25.95786 -57.97848,57.97847 0,32.02065 25.95785,57.97848 57.97848,57.97848 0.40652,0 0.81207,-0.005 1.21661,-0.0131 m 0,0.9422 c -0.40454,-0.008 -0.81009,-0.0131 -1.21661,-0.0131 l 0,0 c -32.02063,0 -57.97848,25.95784 -57.97848,57.97848 0,32.02061 25.95785,57.97847 57.97848,57.97847 0.40652,0 0.81207,-0.005 1.21661,-0.0131 m 0,2.14707 c -0.40454,-0.008 -0.81009,-0.0131 -1.21661,-0.0131 l 0,0 m -0.0469,3.80853 c -0.40453,-0.008 -0.81009,-0.0131 -1.21661,-0.0131 l 0,0 c -32.02063,0 -57.97848,25.95787 -57.97848,57.97848 0,32.02062 25.95785,57.97847 57.97848,57.97847 0.40652,0 65.87602,-0.005 66.28054,-0.0131" />
  </g>
</svg>

<svg width="580" height="580" viewBox="0 0 580 580" fill="none" xmlns="http://www.w3.org/2000/svg">
<g clip-path="url(#clip0)">
<path d="M66.275 1.7679C24.94 1.7679 1.70399 23.1389 1.70399 66.8039V516.927C1.70399 557.771 22.598 579.156 63.896 579.156H515.92C557.227 579.156 578.149 558.84 578.149 516.927V66.8039C578.149 24.2029 557.227 1.7679 514.627 1.7679C514.624 1.7679 66.133 1.6249 66.275 1.7679Z" fill="#111111" stroke="#EEEEEE" stroke-width="3.408"/>
<path d="M143.932 223.407C144.337 223.415 144.742 223.42 145.149 223.42C177.169 223.42 203.127 197.462 203.127 165.442C203.127 133.421 177.169 107.463 145.149 107.463C144.742 107.463 79.2728 107.468 78.8683 107.476M77.6048 462.153C78.0093 462.161 143.479 462.166 143.885 462.166C175.906 462.166 201.864 436.208 201.864 404.188C201.864 372.167 175.906 346.209 143.885 346.209C143.479 346.209 143.073 346.214 142.669 346.222L77.6048 462.153ZM142.669 345.28C143.073 345.288 143.479 345.293 143.885 345.293C175.906 345.293 201.864 319.335 201.864 287.315C201.864 255.294 175.906 229.336 143.885 229.336C143.479 229.336 143.073 229.341 142.669 229.349V345.28ZM142.669 227.202C143.073 227.21 143.479 227.216 143.885 227.216L142.669 227.202Z" stroke="white" stroke-width="32.7511" stroke-linecap="round"/>
<path d="M287.687 112.548V460.946" stroke="white" stroke-width="47.243" stroke-miterlimit="5" stroke-linecap="round"/>
<path d="M434.419 346.223C434.015 346.215 433.609 346.21 433.203 346.21C401.182 346.21 375.224 372.167 375.224 404.188C375.224 436.209 401.182 462.167 433.203 462.167C433.609 462.167 499.079 462.162 499.483 462.153M500.747 107.476C500.342 107.468 434.873 107.463 434.466 107.463C402.445 107.463 376.488 133.421 376.488 165.442C376.488 197.462 402.445 223.42 434.466 223.42C434.873 223.42 435.278 223.415 435.683 223.407L500.747 107.476ZM435.683 224.349C435.278 224.341 434.873 224.336 434.466 224.336C402.445 224.336 376.488 250.294 376.488 282.315C376.488 314.335 402.445 340.293 434.466 340.293C434.873 340.293 435.278 340.288 435.683 340.28V224.349ZM435.683 342.427C435.278 342.419 434.873 342.414 434.466 342.414L435.683 342.427Z" stroke="white" stroke-width="32.7511" stroke-linecap="round"/>
</g>
<defs>
<clipPath id="clip0">
<path d="M0 0H580V580H0V0Z" fill="white"/>
</clipPath>
</defs>
</svg>
